X: 20
T: Anna Maria
P: Longways for as many as will
%R: triple hornpipe, minuet
B: "The Dancing-Master: Containing Directions and Tunes for Dancing" printed by W. Pearson for John Walsh, London ca. 1709
S: 7: DMDfD http://digital.nls.uk/special-collections-of-printed-music/pageturner.cfm?id=89751228 p.228
Z: 2013 John Chambers <jc:trillian.mit.edu>
M: 3/2
L: 1/8
K: Bb
% - - - - - - - - - - - - - - - - - - - - - - - - -
[| b4 f3(e/f/) g4 | f2(ed) c2cd e2ef | g2e2 f2d2 (cd)e2 | d2 B4 f2 d2B2 |]
[| e2 g4 _ag f2(ed) | e2 c4 cd e2c2 | e2 g4 _ag f2(ga) | b2 B4 c2 d2B2 |]
% - - - - - - - - - - Dance description: - - - - - - - - - -
%%begintext align
%%    The 1. cu. take hands and lead through the 2. cu. and cast up into their own places .| The 2. cu. lead
%% up through the 1. and cast off into their own places :|
%%    All four hands half round, then cross over with your own Partners .| The 1. cu. being in the 2. cu.
%% place, go the Figure through till the 1. cu. comes into the 2. cu. place :|
%% [DMDfD]
%%endtext
%%sep 1 8 500

%%sep 1 1 500
%%sep 1 1 500
